src/dsmComponents/Icons/battery-low-24px.svg

<?xml version="1.0" encoding="UTF-8"?>
<svg width="17px" height="24px" viewBox="0 0 17 24" version="1.1" xmlns="http://www.w3.org/2000/svg" xmlns:xlink="http://www.w3.org/1999/xlink">
    <!-- Generator: Sketch 59.1 (86144) - https://sketch.com -->
    <title>battery-low-24px</title>
    <desc>Created with Sketch.</desc>
    <defs>
        <path d="M15.46875,4 L1.03125,4 C0.461706352,4 0,4.44771525 0,5 L0,23 C0,23.5522847 0.461706352,24 1.03125,24 L15.46875,24 C16.0382936,24 16.5,23.5522847 16.5,23 L16.5,5 C16.5,4.44771525 16.0382936,4 15.46875,4 Z M12.375,18.5 L12.375,20.5 L4.125,20.5 L4.125,18.5 L12.375,18.5 Z M12.375,0 L12.375,2 L4.125,2 L4.125,0 L12.375,0 Z" id="path-1"></path>
    </defs>
    <g id="Final" stroke="none" stroke-width="1" fill="none" fill-rule="evenodd">
        <g id="All-Nucleo-Icons" transform="translate(-612.000000, -797.000000)">
            <g id="Solo/Nucleo/24px/battery-low" transform="translate(608.000000, 797.000000)">
                <g id="battery-low" transform="translate(4.000000, 0.000000)">
                    <g id="Colour/Default-Colour">
                        <mask id="mask-2" fill="white">
                            <use xlink:href="#path-1"></use>
                        </mask>
                        <g id="Mask" fill-rule="nonzero"></g>
                        <g id="colour/neutral/chia" mask="url(#mask-2)" fill="#737373">
                            <g transform="translate(-24.000000, -20.000000)" id="Colour">
                                <rect x="0" y="0" width="64" height="64"></rect>
                            </g>
                        </g>
                    </g>
                </g>
            </g>
        </g>
    </g>
</svg>

<svg width="17" height="24" xmlns="http://www.w3.org/2000/svg" xmlns:xlink="http://www.w3.org/1999/xlink"><defs><path d="M15.469 4H1.03C.461 4 0 4.448 0 5v18c0 .552.462 1 1.031 1H15.47c.57 0 1.031-.448 1.031-1V5c0-.552-.462-1-1.031-1zm-3.094 14.5v2h-8.25v-2h8.25zm0-18.5v2h-8.25V0h8.25z" id="battery-low-24px_svg__a"/></defs><use fill="#737373" xlink:href="#battery-low-24px_svg__a" fill-rule="evenodd"/></svg>
